images/company_logo/logo4.svg

<svg width="80" height="43" viewBox="0 0 80 43" fill="none" xmlns="http://www.w3.org/2000/svg">
<path d="M12.4022 12.8306H12.3995C10.1372 12.8306 8.30322 14.6177 8.30322 16.8223V16.8249C8.30322 19.0295 10.1372 20.8167 12.3995 20.8167H12.4022C14.6645 20.8167 16.4985 19.0295 16.4985 16.8249V16.8223C16.4985 14.6177 14.6645 12.8306 12.4022 12.8306Z" fill="#AFB1B8"/>
<path d="M42.6368 11.5545C42.6304 8.49242 41.3795 5.55752 39.1579 3.39207C36.9363 1.22661 33.925 0.00695286 30.7828 0V0C27.6397 0.00556265 24.6269 1.22461 22.4041 3.39022C20.1814 5.55582 18.9298 8.49151 18.9233 11.5545V28.4402C18.9233 28.4402 42.6341 25.8667 42.6368 11.5571V11.5545Z" fill="#AFB1B8"/>
<path d="M0 33.9823C0.00569904 36.1129 0.876556 38.1547 2.42228 39.6615C3.96799 41.1683 6.0629 42.0177 8.24923 42.0239C10.4351 42.0177 12.5296 41.1687 14.0752 39.6625C15.6209 38.1562 16.492 36.1151 16.4985 33.9849V22.2356C16.4985 22.2356 0 24.0276 0 33.9823ZM8.24923 36.0874C7.82198 36.0874 7.40433 35.964 7.04909 35.7326C6.69385 35.5013 6.41697 35.1726 6.25347 34.7879C6.08997 34.4032 6.04719 33.98 6.13054 33.5716C6.2139 33.1632 6.41963 32.7881 6.72174 32.4937C7.02385 32.1993 7.40876 31.9988 7.8278 31.9176C8.24683 31.8364 8.68117 31.8781 9.0759 32.0374C9.47062 32.1967 9.808 32.4665 10.0454 32.8127C10.2827 33.1589 10.4094 33.5659 10.4094 33.9823C10.4105 34.2594 10.3554 34.534 10.2473 34.7903C10.1392 35.0466 9.98028 35.2796 9.77958 35.476C9.57889 35.6723 9.34039 35.828 9.07777 35.9343C8.81516 36.0406 8.53359 36.0953 8.24923 36.0953V36.0874Z" fill="#AFB1B8"/>
<path d="M24.9897 34.6406H23.1997V36.5244H22.6372V32.2588H25.2798V32.7217H23.1997V34.1807H24.9897V34.6406ZM29.2349 34.5293C29.2349 34.9473 29.1646 35.3125 29.0239 35.625C28.8833 35.9355 28.6841 36.1729 28.4263 36.3369C28.1685 36.501 27.8677 36.583 27.5239 36.583C27.188 36.583 26.8901 36.501 26.6304 36.3369C26.3706 36.1709 26.1685 35.9355 26.0239 35.6309C25.8813 35.3242 25.8081 34.9697 25.8042 34.5674V34.2598C25.8042 33.8496 25.8755 33.4873 26.0181 33.1729C26.1606 32.8584 26.3618 32.6182 26.6216 32.4521C26.8833 32.2842 27.1821 32.2002 27.5181 32.2002C27.8599 32.2002 28.1606 32.2832 28.4204 32.4492C28.6821 32.6133 28.8833 32.8525 29.0239 33.167C29.1646 33.4795 29.2349 33.8438 29.2349 34.2598V34.5293ZM28.6753 34.2539C28.6753 33.748 28.5737 33.3604 28.3706 33.0908C28.1675 32.8193 27.8833 32.6836 27.5181 32.6836C27.1626 32.6836 26.8823 32.8193 26.6772 33.0908C26.4741 33.3604 26.3696 33.7354 26.3638 34.2158V34.5293C26.3638 35.0195 26.4663 35.4053 26.6714 35.6865C26.8784 35.9658 27.1626 36.1055 27.5239 36.1055C27.8872 36.1055 28.1685 35.9736 28.3677 35.71C28.5669 35.4443 28.6694 35.0645 28.6753 34.5703V34.2539ZM31.3354 34.623C30.853 34.4844 30.5015 34.3145 30.2808 34.1133C30.062 33.9102 29.9526 33.6602 29.9526 33.3633C29.9526 33.0273 30.0864 32.75 30.354 32.5312C30.6235 32.3105 30.9731 32.2002 31.4028 32.2002C31.6958 32.2002 31.9565 32.2568 32.1851 32.3701C32.4155 32.4834 32.5933 32.6396 32.7183 32.8389C32.8452 33.0381 32.9087 33.2559 32.9087 33.4922H32.3433C32.3433 33.2344 32.2612 33.0322 32.0972 32.8857C31.9331 32.7373 31.7017 32.6631 31.4028 32.6631C31.1255 32.6631 30.9087 32.7246 30.7524 32.8477C30.5981 32.9688 30.521 33.1377 30.521 33.3545C30.521 33.5283 30.5942 33.6758 30.7407 33.7969C30.8892 33.916 31.1401 34.0254 31.4937 34.125C31.8491 34.2246 32.1265 34.335 32.3257 34.4561C32.5269 34.5752 32.6753 34.7148 32.771 34.875C32.8687 35.0352 32.9175 35.2236 32.9175 35.4404C32.9175 35.7861 32.7827 36.0635 32.5132 36.2725C32.2437 36.4795 31.8833 36.583 31.4321 36.583C31.1392 36.583 30.8657 36.5273 30.6118 36.416C30.3579 36.3027 30.1616 36.1484 30.0229 35.9531C29.8862 35.7578 29.8179 35.5361 29.8179 35.2881H30.3833C30.3833 35.5459 30.478 35.75 30.6675 35.9004C30.8589 36.0488 31.1138 36.123 31.4321 36.123C31.729 36.123 31.9565 36.0625 32.1147 35.9414C32.2729 35.8203 32.3521 35.6553 32.3521 35.4463C32.3521 35.2373 32.2788 35.0762 32.1323 34.9629C31.9858 34.8477 31.7202 34.7344 31.3354 34.623ZM36.5884 32.7217H35.2173V36.5244H34.6577V32.7217H33.2896V32.2588H36.5884V32.7217ZM39.6323 34.5527H37.7837V36.0645H39.9312V36.5244H37.2212V32.2588H39.9019V32.7217H37.7837V34.0928H39.6323V34.5527ZM42.1958 34.7988H41.1938V36.5244H40.6284V32.2588H42.0405C42.521 32.2588 42.8901 32.3682 43.1479 32.5869C43.4077 32.8057 43.5376 33.124 43.5376 33.542C43.5376 33.8076 43.4653 34.0391 43.3208 34.2363C43.1782 34.4336 42.979 34.5811 42.7231 34.6787L43.7251 36.4893V36.5244H43.1216L42.1958 34.7988ZM41.1938 34.3389H42.0581C42.3374 34.3389 42.5591 34.2666 42.7231 34.1221C42.8892 33.9775 42.9722 33.7842 42.9722 33.542C42.9722 33.2783 42.8931 33.0762 42.7349 32.9355C42.5786 32.7949 42.3521 32.7236 42.0552 32.7217H41.1938V34.3389ZM46.3794 34.8545V36.5244H45.8169V32.2588H47.3901C47.8569 32.2588 48.2222 32.3779 48.4858 32.6162C48.7515 32.8545 48.8843 33.1699 48.8843 33.5625C48.8843 33.9766 48.7544 34.2959 48.4946 34.5205C48.2368 34.7432 47.8667 34.8545 47.3843 34.8545H46.3794ZM46.3794 34.3945H47.3901C47.6909 34.3945 47.9214 34.3242 48.0815 34.1836C48.2417 34.041 48.3218 33.8359 48.3218 33.5684C48.3218 33.3145 48.2417 33.1113 48.0815 32.959C47.9214 32.8066 47.7017 32.7275 47.4224 32.7217H46.3794V34.3945ZM52.0132 34.5527H50.1646V36.0645H52.312V36.5244H49.6021V32.2588H52.2827V32.7217H50.1646V34.0928H52.0132V34.5527ZM56.0181 32.7217H54.647V36.5244H54.0874V32.7217H52.7192V32.2588H56.0181V32.7217ZM59.062 34.5527H57.2134V36.0645H59.3608V36.5244H56.6509V32.2588H59.3315V32.7217H57.2134V34.0928H59.062V34.5527ZM61.6255 34.7988H60.6235V36.5244H60.0581V32.2588H61.4702C61.9507 32.2588 62.3198 32.3682 62.5776 32.5869C62.8374 32.8057 62.9673 33.124 62.9673 33.542C62.9673 33.8076 62.895 34.0391 62.7505 34.2363C62.6079 34.4336 62.4087 34.5811 62.1528 34.6787L63.1548 36.4893V36.5244H62.5513L61.6255 34.7988ZM60.6235 34.3389H61.4878C61.7671 34.3389 61.9888 34.2666 62.1528 34.1221C62.3188 33.9775 62.4019 33.7842 62.4019 33.542C62.4019 33.2783 62.3228 33.0762 62.1646 32.9355C62.0083 32.7949 61.7817 32.7236 61.4849 32.7217H60.6235V34.3389ZM65.0151 34.623C64.5327 34.4844 64.1812 34.3145 63.9604 34.1133C63.7417 33.9102 63.6323 33.6602 63.6323 33.3633C63.6323 33.0273 63.7661 32.75 64.0337 32.5312C64.3032 32.3105 64.6528 32.2002 65.0825 32.2002C65.3755 32.2002 65.6362 32.2568 65.8647 32.3701C66.0952 32.4834 66.2729 32.6396 66.3979 32.8389C66.5249 33.0381 66.5884 33.2559 66.5884 33.4922H66.0229C66.0229 33.2344 65.9409 33.0322 65.7769 32.8857C65.6128 32.7373 65.3813 32.6631 65.0825 32.6631C64.8052 32.6631 64.5884 32.7246 64.4321 32.8477C64.2778 32.9688 64.2007 33.1377 64.2007 33.3545C64.2007 33.5283 64.2739 33.6758 64.4204 33.7969C64.5688 33.916 64.8198 34.0254 65.1733 34.125C65.5288 34.2246 65.8062 34.335 66.0054 34.4561C66.2065 34.5752 66.355 34.7148 66.4507 34.875C66.5483 35.0352 66.5972 35.2236 66.5972 35.4404C66.5972 35.7861 66.4624 36.0635 66.1929 36.2725C65.9233 36.4795 65.563 36.583 65.1118 36.583C64.8188 36.583 64.5454 36.5273 64.2915 36.416C64.0376 36.3027 63.8413 36.1484 63.7026 35.9531C63.5659 35.7578 63.4976 35.5361 63.4976 35.2881H64.063C64.063 35.5459 64.1577 35.75 64.3472 35.9004C64.5386 36.0488 64.7935 36.123 65.1118 36.123C65.4087 36.123 65.6362 36.0625 65.7944 35.9414C65.9526 35.8203 66.0317 35.6553 66.0317 35.4463C66.0317 35.2373 65.9585 35.0762 65.812 34.9629C65.6655 34.8477 65.3999 34.7344 65.0151 34.623Z" fill="#AFB1B8"/>
</svg>

<svg width="80" height="43" fill="none" xmlns="http://www.w3.org/2000/svg"><path d="M12.4 12.8a4 4 0 00-4.1 4 4 4 0 004.1 4 4 4 0 004.1-4 4 4 0 00-4.1-4zM42.6 11.6c0-3.1-1.2-6-3.4-8.2a12 12 0 00-16.8 0 11.4 11.4 0 00-3.5 8.2v16.8S42.6 26 42.6 11.6zM0 34a8 8 0 002.4 5.7 8.4 8.4 0 0011.7 0 8 8 0 002.4-5.7V22.2S0 24 0 34zm8.2 2c-.4 0-.8 0-1.2-.3-.3-.2-.6-.5-.7-1a2 2 0 01.4-2.2 2.2 2.2 0 012.4-.5l1 .8a2 2 0 01-.3 2.7 2.2 2.2 0 01-1.6.6zM25 34.6h-1.8v2h-.6v-4.3h2.7v.4h-2.1v1.5H25v.4zm4.2 0c0 .3 0 .7-.2 1-.1.3-.3.6-.6.7-.2.2-.5.3-.9.3l-.9-.3-.6-.7-.2-1v-.3c0-.5 0-.8.2-1.1l.6-.7c.3-.2.6-.3 1-.3.3 0 .6 0 .8.2.3.2.5.5.6.8.2.3.2.6.2 1v.3zm-.5-.3a2 2 0 00-.3-1.2 1 1 0 00-.9-.4 1 1 0 00-.8.4c-.2.3-.3.6-.3 1.1v.3c0 .5 0 1 .3 1.2.2.3.5.4.8.4.4 0 .7-.1.9-.4.2-.3.3-.6.3-1.1v-.3zm2.6.3l-1-.5a1 1 0 01-.3-.7c0-.4 0-.6.4-.9.2-.2.6-.3 1-.3.3 0 .6 0 .8.2.2 0 .4.2.5.4l.2.7h-.6c0-.3 0-.5-.2-.6a1 1 0 00-.7-.2 1 1 0 00-.6.1c-.2.2-.3.3-.3.6 0 .1 0 .3.2.4l.8.3.8.4c.2 0 .4.2.5.4l.1.5c0 .4-.1.7-.4.9-.3.2-.6.3-1 .3a2 2 0 01-.9-.2L30 36l-.2-.7h.6c0 .2 0 .5.3.6l.7.2c.3 0 .6 0 .7-.2.2 0 .3-.2.3-.5 0-.2-.1-.3-.3-.4-.1-.2-.4-.3-.8-.4zm5.3-1.9h-1.4v3.8h-.5v-3.8h-1.4v-.4h3.3v.4zm3 1.9h-1.8V36h2.1v.4h-2.7v-4.2H40v.4h-2.1v1.4h1.8v.5zm2.6.2h-1v1.7h-.6v-4.2H42c.5 0 .9 0 1.1.3.3.2.4.5.4 1 0 .2 0 .4-.2.6-.1.2-.3.4-.6.5l1 1.8h-.6l-.9-1.7zm-1-.5h.9c.2 0 .5 0 .6-.2.2-.1.3-.3.3-.6l-.3-.6-.6-.2h-1v1.6zm5.2.6v1.6h-.6v-4.2h1.6c.5 0 .8 0 1 .3.4.3.5.6.5 1s-.1.7-.4 1c-.3.1-.6.3-1.1.3h-1zm0-.5h1c.3 0 .5 0 .7-.2l.2-.6c0-.3 0-.5-.2-.6a1 1 0 00-.7-.3h-1v1.7zm5.6.2h-1.8V36h2.1v.4h-2.7v-4.2h2.7v.4h-2.1v1.4H52v.5zm4-1.9h-1.4v3.8h-.5v-3.8h-1.4v-.4H56v.4zm3 1.9h-1.8V36h2.2v.4h-2.7v-4.2h2.6v.4h-2v1.4H59v.5zm2.6.2h-1v1.7h-.5v-4.2h1.4c.5 0 .8 0 1 .3.3.2.5.5.5 1l-.2.6-.6.5 1 1.8h-.6l-1-1.7zm-1-.5h.9c.3 0 .5 0 .7-.2l.2-.6c0-.2 0-.4-.2-.6l-.7-.2h-.9v1.6zm4.4.3c-.5-.1-.8-.3-1-.5a1 1 0 01-.4-.7c0-.4.2-.6.4-.9.3-.2.7-.3 1-.3.4 0 .6 0 .9.2.2 0 .4.2.5.4l.2.7H66c0-.3 0-.5-.2-.6a1 1 0 00-.7-.2 1 1 0 00-.7.1l-.2.6c0 .1 0 .3.2.4l.8.3.8.4c.2 0 .4.2.5.4l.1.5c0 .4-.1.7-.4.9-.3.2-.6.3-1 .3a2 2 0 01-1-.2l-.5-.4-.2-.7h.6c0 .2 0 .5.2.6l.8.2c.3 0 .5 0 .7-.2.2 0 .2-.2.2-.5 0-.2 0-.3-.2-.4-.1-.2-.4-.3-.8-.4z" fill="#AFB1B8"/></svg>
